X: 14
T: Contrapasso Nuovo
P: AAA BBB AA BBB (for Contrapasso in Due)
K: F major
M: 3/4
L: 1/8
P: ADE |: \
"F"F2F2"C"G2 | "F"A2AGF_E | "Bb"D2F2"C"G2 | "F"A2A2DE | FGAF"C"GE | "F"FBAGF_E | \
"Bb"DEF2"C"GE |  [1-2 "F"F2F2DE :|]  [3 "F"F2F2AB :: 
P: B
"F"c2cFGA | "Bb"B2B2B2 | B2"C"B3G | \
"F"A2A2AB | "F"c2cFGA | "Bb"B2B2B2 | B2"C"B3G | "F"A2A2z2 | "F"FGAFGA | \
"Bb"B2B2A2 | "Cm"G2G2"Dm"F2 | "C"G2G2GB | "F"ABAGF2 | "Bb"D2"C"EG"Dm"FA | "C"GFG2E2 | \
 [1-2 "F"F2F2z2 :|]  [3 "F"F6 |] 

